usr/share/icons/biglinux-icons-material-dark/16/actions/format-font-size-less.svg

<svg xmlns="http://www.w3.org/2000/svg" viewBox="0 0 16 16">
  <defs id="defs3051">
    <style type="text/css" id="current-color-scheme">
      .ColorScheme-Text {
        color:#dedede;
      }
      </style>
  </defs>
 <path style="fill:currentColor;fill-opacity:1;stroke:none" 
       d="M 6.3828125 2 L 2 13 L 3.3574219 13 L 4.546875 10 L 9 10 L 9.4746094 10 L 10.839844 10 L 7.7480469 2 L 6.3828125 2 z M 7.0625 3.328125 C 7.17566 3.704205 7.773975 5.4100894 8.859375 8.4433594 L 9.0839844 9 L 4.9414062 9 L 7.0625 3.328125 z M 12 9 L 12 12.09375 L 10 10.09375 L 10 11.5 L 12.28125 13.8125 L 12.5 14 L 12.71875 13.8125 L 15 11.5 L 15 10.09375 L 13 12.09375 L 13 9 L 12 9 z "
     class="ColorScheme-Text"
     />
</svg>

<svg xmlns="http://www.w3.org/2000/svg" viewBox="0 0 16 16">
<defs id="defs3051">
<style id="current-color-scheme" type="text/css">
.ColorScheme-Text{color:#dedede}
</style>
</defs>
<path d="M6.383 2 2 13h1.357l1.19-3h6.293L7.748 2zm.68 1.328q.169.565 1.796 5.115L9.084 9H4.941zM12 9v3.094l-2-2V11.5l2.281 2.313.219.187.219-.187L15 11.5v-1.406l-2 2V9z" class="ColorScheme-Text" style="fill:currentColor;fill-opacity:1;stroke:none"/>
</svg>
